X:172
T:Ffarwel i Dre' Caernarfon Lon
M:3/4
L:1/8
Q:90
C:Trad. arr. J.T.
R:Slow air
N:Slightly compressed
K:G
E GB | A3 G/F/ ED | E3 E GB | B2
A/G/F/E/ DE |
F3 E ED | B3 E/F/ GE | A3 F GA | B3 G/F/
EE | E3 ||
